X:1
T:Camptown Races
C:Stephen Foster
M:4/4
L:1/4
Q:1/4=120
K:G
G G E G | A B c2 | G G E G | D2 G2 |
G G E G | A B c2 | d c B A | G4 |]
w: Camp-town rac-es five miles out | Doo dah doo dah | Camp-town rac-es five miles out | Oh the doo dah day |
w: Go-ing to run all night | Go-ing to run all day | I bet my mon-ey on a bob tail nag | Some-bod-y bet on the bay |
